!!!!SEGMENT: pl-wtm--r-1185_lessel-franciszek-studia-kontrapunktyczne.krn
!!!id: 18xx:1634
!!!COM: Lessel, Franciszek
!!!OTL: Studia kontrapunktyczne
!!!PDT:
!!!SMS-siglum: PL-Wtm
!!!SMS-shelfmark: R 1185
!!!SMS-variant:
!!!SMS-altvar:
!!!NIFC-rismID: 1001086068
!!!system-decoration: {(s1,s2,s3)}
**kern	**fba	**kern	**kern	**fba
*part1	*part1	*part1	*part1	*part1
*staff3	*	*staff2	*staff1	*
*clefC4	*	*clefC3	*clefG2	*
*k[]	*	*k[]	*k[]	*
*M2/2	*	*M2/2	*M2/2	*
*met(c|)	*	*met(c|)	*met(c|)	*
=1	=1	=1	=1	=1
!	!	!	!LO:TX:a:t=P:w źródle w pierwszych 5 taktach '9' poprawione na '7':problem	!
4c\	1	1c	4cc\	8
4d\	2	.	4ee\	10
4e\	3	.	4cc\	8
4c\	1	.	4b\	7
=2	=2	=2	=2	=2
4d\	3	1f	4a\	3
4D/	10	.	4b\	4
4d\	3	.	4cc\	5
4c\	4	.	4a\	3
=3	=3	=3	=3	=3
4B\	3	1d	4dd\	8
4c\	2	.	4ff\	10
4d\	1	.	4dd\	8
4B\	3	.	4cc\	7
=4	=4	=4	=4	=4
4e\	3	1g	4b\	3
4E/	10	.	4cc\	4
4e\	3	.	4dd\	5
4d\	4	.	4b\	4
=5	=5	=5	=5	=5
4c\	3	1e	4ee\	8
4d\	2	.	4gg\	10
4e\	1	.	4ee\	8
4c\	3	.	4dd\	7
=6	=6	=6	=6	=6
4f\	3	1a	4cc\	3
4F/	10	.	4dd\	4
4f\	3	.	4ee\	5
4e\	4	.	4cc\	6
=7	=7	=7	=7	=7
4d\	3	1f	4ff\	8
4e\	2	.	4aa\	10
4f\	1	.	4ff\	8
4d\	2	.	4ee\	7
=8	=8	=8	=8	=8
4g\	3	1b	4dd\	3
4G/	10	.	4ee\	4
4g\	3	.	4ff\	5
4f\	4	.	4dd\	3
=9	=9	=9	=9	=9
4e\	3	1g	4gg\	6
4f\	2	.	4ff\	7
4g\	1	.	4ee\	6
4f\	2	.	4dd\	5
=10	=10	=10	=10	=10
4e\	6	1cc	4ee\	3
4E/	6	.	4gg\	5
4e\	6	.	4ee\	3
4d\	7	.	4dd\	2
=11	=11	=11	=11	=11
4c\	6	1a	4cc\	3
4C/	6	.	4ee\	5
4c\	6	.	4cc\	3
4B\	7	.	4b\	2
=12	=12	=12	=12	=12
4A\	6	1f	4a\	3
4G\	7	.	4cc\	5
4F\	8	.	4b\	4
4A\	6	.	4a\	3
=13	=13	=13	=13	=13
4G\	6	1e	4g\	3
4c\	3	.	4cc\	6
!LO:TX:a:t=P:w źródle '10' poprawione na '6':problem	!	!	!	!
4C/	6	.	4g/	3
4E/	8	.	4e/	1
=14	=14	=14	=14	=14
4F/	6	1d	4f/	3
4G/	5	.	4g/	4
4A/	4	.	4a/	5
4B/	7	.	4b/	6
=15	=15	=15	=15	=15
0c	1	0c	0cc	8
!!LO:LB:g=original
=16||	=16||	=16||	=16||	=16||
*	*	*	*clefC1	*
*M2/2	*	*M2/2	*M2/2	*
*met(c|)	*	*met(c|)	*met(c|)	*
4C/	8	1c	4cc\	8
4D/	7	.	4dd\	9
4E/	6	.	4ee\	10
4F/	5	.	4dd\	9
=17	=17	=17	=17	=17
4G\	6	1e	4cc\	6
4A\	5	.	4b\	5
4B\	4	.	4a\	4
4c\	3	.	4g\	3
=18	=18	=18	=18	=18
4d\	3	1f	4a\	3
4D/	10	.	4b\	4
4d\	3	.	4cc\	5
4c\	4	.	4a\	3
=19	=19	=19	=19	=19
4B\	3	1d	4b\	6
4G\	5	.	4cc\	7
4A\	4	.	4dd\	8
4B\	3	.	4b\	6
=20	=20	=20	=20	=20
4c\	1	1c	4cc\	8
4C/	8	.	4dd\	9
4c\	1	.	4ee\	10
4d\	2	.	4dd\	9
=21	=21	=21	=21	=21
4e\	8	1cc	4cc\	1
4c\	8	.	4ee\	3
4e\	6	.	4gg\	5
4f\	5	.	4ee\	3
=22	=22	=22	=22	=22
4g\	3	1b	4dd\	3
4f\	4	.	4ff#X\	5
4e\	5	.	4gg\	6
4d\	6	.	4dd\	3
=23	=23	=23	=23	=23
4c\	6	1a	4cc\	3
4A\	8	.	4ee\	5
4c\	6	.	4ff\	6
4d\	5	.	4cc\	3
=24	=24	=24	=24	=24
4e\	3	1g	4b\	3
4d\	4	.	4dd\	5
4c\	5	.	4ee\	6
4B\	6	.	4b\	3
=25	=25	=25	=25	=25
4A\	6	1f	4a\	3
4F\	8	.	4cc\	5
4A\	6	.	4dd\	6
4B\	5	.	4a\	3
=26	=26	=26	=26	=26
4c\	3	1e	4g\	3
4G/	6	.	4b\	5
4F/	7	.	4cc\	6
4E/	8	.	4g\	3
=27	=27	=27	=27	=27
4F/	6	1d	4f\	3
4G/	5	.	4g\	4
4A/	4	.	4a\	5
4B/	3	.	4b\	6
=28	=28	=28	=28	=28
0c	.	0c	0cc	8
!!LO:LB:original
=29||	=29||	=29||	=29||	=29||
*M2/2	*	*M2/2	*M2/2	*
*met(c|)	*	*met(c|)	*met(c|)	*
4E/	8	1e	4b\	5
4F/	7	.	4g\	3
4G/	6	.	4a\	4
4E/	8	.	4b\	5
=30	=30	=30	=30	=30
4A/	3	1c	4cc\	8
4G/	4	.	4b\	7
4F/	5	.	4a\	6
4E/	6	.	4g\	5
=31	=31	=31	=31	=31
4D/	8	1d	4f\	3
4E/	7	.	4g\	4
4F/	6	.	4a\	5
4G/	5	.	4b\	6
=32	=32	=32	=32	=32
4A/	3	1c	4cc\	8
4E/	6	.	4e/	3
4A/	3	.	4f/	4
4G/	4	.	4g/	5
=33	=33	=33	=33	=33
4F/	3	1A	4a\	8
4E/	4	.	4cc\	10
4D/	5	.	4ee\	5
4E/	4	.	4dd\	4
=34	=34	=34	=34	=34
4F/	10	1a	4cc\	3
4G/	9	.	4b\	2
4A/	8	.	4a\	1
4B\	7	.	4cc\	3
=35	=35	=35	=35	=35
4c\	5	1g	4b\	3
4d\	4	.	4dd\	5
4e\	3	.	4b\	3
4d\	4	.	4a\	2
=36	=36	=36	=36	=36
4c\	3	1e	4g\	3
4C/	10	.	4b\	5
4c\	3	.	4cc\	6
4B\	4	.	4b\	5
=37	=37	=37	=37	=37
4A\	6	1f	4a\	3
4B\	5	.	4b\	4
4c\	4	.	4cc\	5
4d\	3	.	4dd\	6
=38	=38	=38	=38	=38
!	!	!	!LO:TX:b:Bi:t=Studija Kontrapunktyczne własnoręczne Fr. Lesſla \n zapewne z poprawkami oryginal- \n nemi Józefa Haydn'a \n Własność	!
!	!	!	!LO:TX:b:t=P:problem:podpis na koniec dopisku	!
0e	1	0e	0ee	8
!!LO:PB:g=original
=39||	=39||	=39||	=39||	=39||
*clefF4	*	*	*	*
*M2/2	*	*M2/2	*M2/2	*
*met(c|)	*	*met(c|)	*met(c|)	*
!	!	!	!LO:TX:a:Bi:t=Lectio 6.:rj	!
4E\	8	1e	4b\	5
4D\	9	.	4cc\	6
4C\	10	.	4dd\	7
4E\	8	.	4ee\	8
=40	=40	=40	=40	=40
4F\	3	1A	4ff\	6
4E\	4	.	4ee\	5
4D\	5	.	4dd\	4
4C\	6	.	4cc\	3
=41	=41	=41	=41	=41
4BB/	10	1d	4b\	6
4B\	3	.	4cc\	7
4A\	4	.	4dd\	8
4G#X\	5	.	4b\	6
=42	=42	=42	=42	=42
4A\	3	1c	4a\	6
4AA/	6	.	4b\	7
4E\	3	.	4cc\	8
4A\	8	.	4a\	6
=43	=43	=43	=43	=43
!LO:TX:t=P:problem:w źródle takty 43-45 przeniesione z następnego kontrapunktu oznaczonego znakiem	!	!	!	!
!LO:TX:a:t=P:znak:problem	!	!	!	!
4G#X\	3	1B	4g#X\	6
4F#X\	4	.	4a\	7
4E\	5	.	4b\	6
4D\	6	.	4g#X\	6
=44	=44	=44	=44	=44
4C\	6	1A	4a\	8
4D\	5	.	4cc\	10
4C\	6	.	4ee\	5
4BB\	7	.	4dd\	4
=45	=45	=45	=45	=45
4AA\	8	1a	4cc\	3
4A\	8	.	4b\	2
4c\	6	.	4a\	1
4A\	1	.	4b\	2
=46	=46	=46	=46	=46
4G\	6	1e	4cc\	6
4A\	5	.	4b\	5
4G\	6	.	4cc\	6
4F\	7	.	4dd\	7
=47	=47	=47	=47	=47
4E\	10	1g	4ee\	6
4D\	4	.	4dd\	5
4C\	5	.	4cc\	4
4BB\	6	.	4b\	3
=48	=48	=48	=48	=48
4AA/	6	1f	4a\	3
4BB/	5	.	4b\	4
4C/	4	.	4cc\	5
4D/	3	.	4dd\	6
=49	=49	=49	=49	=49
0E	8	0e	0ee	8
!!LO:LB:g=original
=50||	=50||	=50||	=50||	=50||
*M2/2	*	*M2/2	*M2/2	*
*met(c|)	*	*met(c|)	*met(c|)	*
4E\	8	1e	4ee\	8
4F#X\	7	.	4dd\	7
4G#X\	6	.	4cc\	6
4E\	5	.	4b\	5
=51	=51	=51	=51	=51
4F\	3	1A	4cc\	10
4E\	4	.	4b\	9
4D\	5	.	4a\	8
4E\	4	.	4cc\	10
=52	=52	=52	=52	=52
4F\	6	1d	4b\	6
4D\	8	.	4ff\	10
4E\	7	.	4dd\	8
4F\	6	.	4b\	6
=53	=53	=53	=53	=53
4E\	6	1c	4a\	6
4A\	3	.	4ee\	10
4c\	1	.	4cc\	8
4A\	3	.	4a\	6
=54	=54	=54	=54	=54
!LO:TX:a:t=P:znak:problem	!	!	!	!
4G#X\	3	1B	4g#X\	6
4F#X\	4	.	4dd\	10
4E\	5	.	4b\	8
4D\	6	.	4g#\	6
=55	=55	=55	=55	=55
4C\	6	1A	4a\	8
4D\	5	.	4b\	9
4C\	6	.	4cc\	10
4BB\	7	.	4b\	9
=56	=56	=56	=56	=56
4AA\	8	1a	4a\	1
4A\	8	.	4cc\	3
4c\	6	.	4ee\	5
4A\	1	.	4dd\	4
=57	=57	=57	=57	=57
4G\	6	1e	4cc\	6
4A\	5	.	4b\	5
4G\	6	.	4cc\	6
4F\	7	.	4dd\	7
=58	=58	=58	=58	=58
4E\	10	1g	4ee\	6
4D\	4	.	4b\	3
4C\	5	.	4a\	2
4BB\	6	.	4g\	1
=59	=59	=59	=59	=59
4AA/	6	1f	4a\	3
4BB/	5	.	4b\	4
4C/	4	.	4cc\	5
4D\	3	.	4dd\	6
=60	=60	=60	=60	=60
0E	8	0e	0ee	.
!!LO:LB:g=original
=61||	=61||	=61||	=61||	=61||
*	*	*clefC4	*clefC3	*
*M2/2	*	*M2/2	*M2/2	*
*met(c|)	*	*met(c|)	*met(c|)	*
4F\	1	1F	4f\	8
4G\	2	.	4g\	9
4A\	3	.	4a\	10
4F\	1	.	4f\	8
=62	=62	=62	=62	=62
4E\	6	1c	4e\	3
4C\	8	.	4d\	2
4D\	7	.	4c\	1
4E\	6	.	4e\	3
=63	=63	=63	=63	=63
4F\	3	1A	4f\	6
4E\	4	.	4e\	5
4D\	5	.	4f\	6
4C\	6	.	4g\	7
=64	=64	=64	=64	=64
4D\	3	1F	4a\	3
4C\	4	.	4b-X\	4
4BB-X\	5	.	4cc\	5
4AA\	6	.	4a\	3
=65	=65	=65	=65	=65
4BB-X/	3	1D	4b-X\	6
4GG/	5	.	4a\	5
4AA/	4	.	4g\	4
4BB-X/	3	.	4f\	3
=66	=66	=66	=66	=66
4C/	3	1E	4g\	3
4BB-X/	4	.	4c\	6
4AA/	5	.	4cc\	6
4GG/	6	.	4b-X\	5
=67	=67	=67	=67	=67
4AA/	6	1F	4a\	10
4BB-X/	5	.	4g\	9
4AA/	6	.	4f\	8
4GG/	7	.	4a\	10
=68	=68	=68	=68	=68
4FF/	10	1A	4f\	6
4F\	3	.	4e\	5
4C/	6	.	4d\	4
4AA/	8	.	4c\	3
=69	=69	=69	=69	=69
4BB-X/	6	1G	4B-X\	3
4C/	5	.	4c\	4
4D/	4	.	4d\	5
4E/	3	.	4e\	6
=70	=70	=70	=70	=70
0F	1	0F	0f	8
!!LO:PB:g=original
=71||	=71||	=71||	=71||	=71||
*clefC4	*	*clefC3	*clefC1	*
*M2/2	*	*M2/2	*M2/2	*
*met(c|)	*	*met(c|)	*met(c|)	*
*2\right	*	*	*2\right	*
2r	.	1c	2r	.
[>2c\	1	.	[>2cc\	8
=72	=72	=72	=72	=72
!LO:TX:b:Bi:t=X	!	!	!	!
2c\]	4	1f	2cc\]	5
[>2A\	6	.	[>2a\	3
=73	=73	=73	=73	=73
2A\]	4	1d	2a\]	5
!LO:TX:b:Bi:t=X	!	!	!	!
[>2B\	3	.	[>2dd\	8
=74	=74	=74	=74	=74
2B\]	6	1g	2dd\]	5
[>2c\	5	.	[>2b\	3
=75	=75	=75	=75	=75
2c\]	3	1e	2b\]	5
[>2A\	5	.	[>2ee\	8
=76	=76	=76	=76	=76
2A\]	8	1a	2ee\]	5
[<2F/	10	.	[>2cc\	3
=77	=77	=77	=77	=77
2F/]	8	1f	2cc\]	5
[>2d\	3	.	[>2dd\	6
=78	=78	=78	=78	=78
2d\]	1	1d	2dd\]	8
[<2G/	5	.	[>2b\	6
=79	=79	=79	=79	=79
2G/]	6	1e	2b\]	5
[<2C/	10	.	2cc\	6
=80	=80	=80	=80	=80
2C/]	8	1c	2ee\	10
[>2c\	1	.	[>2cc\	.
=81	=81	=81	=81	=81
2c\]	2	1d	2cc\]	.
2B\	3	.	2b\	.
=82	=82	=82	=82	=82
0c	1	0c	0cc	.
!!LO:LB:g=original
=83||	=83||	=83||	=83||	=83||
*M2/2	*	*M2/2	*M2/2	*
*met(c|)	*	*met(c|)	*met(c|)	*
2r	.	1G	2r	.
[<2G/	1	.	[>2g\	8
=84	=84	=84	=84	=84
!LO:TX:b:Bi:t=X	!	!	!	!
2G/]	4	1c	2g\]	5
[<2E/	6	.	[<2e/	4
=85	=85	=85	=85	=85
2E/]	5	1B	2e/]	4
[<2D/	6	.	[<2d/	3
=86	=86	=86	=86	=86
!LO:TX:b:Bi:t=X	!	!	!	!
2D/]	4	1G	2d/]	5
[<2E/	3	.	2g\	8
=87	=87	=87	=87	=87
2E/]	6	1c	2g\	5
!LO:TX:b:Bi:t=X	!	!	!	!
[<2G/	4	.	[>2cc\	8
=88	=88	=88	=88	=88
2G/]	6	1e	2cc\]	6
[<2F/	7	.	[>2b\	5
=89	=89	=89	=89	=89
2F/]	6	1d	2b\]	6
[<2G/	5	.	[>2dd\	8
=90	=90	=90	=90	=90
2G/]	8	1g	2dd\]	5
!	!	!	!LO:TX:b:Bi:=X	!
[>2c\	5	.	[>2cc\	4
=91	=91	=91	=91	=91
2c\]	3	1e	2cc\]	6
2A\	5	.	[>2ee\	8
=92	=92	=92	=92	=92
2A\	3	1c	2ee\]	10
[<2F/	5	.	[>2a\	6
=93	=93	=93	=93	=93
2F/]	6	1d	2a\]	5
[<2D/	8	.	[>2b\	6
=94	=94	=94	=94	=94
2D/]	6	1B	2b\]	8
[<2G/	3	.	[>2g\	6
=95	=95	=95	=95	=95
2G/]	2	1A	2g\]	7
2F#X/	.	.	2f#X\	6
=96	=96	=96	=96	=96
0G	.	0G	0g	.
!!LO:LB:g=original
=97||	=97||	=97||	=97||	=97||
*M2/2	*	*M2/2	*M2/2	*
*met(c|)	*	*met(c|)	*met(c|)	*
!	!	!	!LO:TX:a:Bi:t=Lectio 8:rj	!
2r	.	1e	2r	.
[<2E/	.	.	[>2ee\	8
=98	=98	=98	=98	=98
2E/]	.	1A	2ee\]	5
[<2D/	.	.	[>2cc\	10
=99	=99	=99	=99	=99
2D/]	.	1d	2cc\]	7
[<2F/	.	.	[>2b\	6
=100	=100	=100	=100	=100
2F/]	.	1c	2b\]	7
[<2A\	.	.	2a\	6
=101	=101	=101	=101	=101
!	!	!	!LO:TX:a:Bi:t=a	!
2A\]	.	1B	2a\	10
!	!	!	!LO:TX:a:Bi:t=G	!
[<2G/	.	.	[>2g\	6
=102	=102	=102	=102	=102
2G/]	.	1A	2g\]	7
[<2F/	.	.	2f\	6
=103	=103	=103	=103	=103
2F/]	.	1a	2f\	3
[>2d\	.	.	2cc\	6
=104	=104	=104	=104	=104
2d\]	.	1e	2cc\	9
[>2c\	.	.	[<2b\	8
=105	=105	=105	=105	=105
2c\]	.	1g	2b\]	3
[>2e\	.	.	[>2ee\	6
=106	=106	=106	=106	=106
2e\]	.	1f	2ee\]	7
2d\	.	.	2dd\	6
=107	=107	=107	=107	=107
0e	.	0e	0ee	8
!!LO:PB:g=original
=108||	=108||	=108||	=108||	=108||
*clefF4	*	*clefC4	*clefC3	*
*M2/2	*	*M2/2	*M2/2	*
*met(c|)	*	*met(c|)	*met(c|)	*
2r	.	1F	2r	.
[>2F\	1	.	[>2f\	8
=109	=109	=109	=109	=109
2F\]	5	1c	2f\]	4
[>2E\	6	.	[>2e\	3
=110	=110	=110	=110	=110
2E\]	4	1A	2e\]	5
[>2D\	5	.	[>2f\	6
=111	=111	=111	=111	=111
2D\]	3	1F	2f\]	8
[<2BB-X/	5	.	[>2a\	10
=112	=112	=112	=112	=112
2BB-/]	3	1D	2a\]	5
[<2GG/	5	.	[>2b-X\	6
=113	=113	=113	=113	=113
2GG/]	6	1E	2b-\]	5
[<2C/	3	.	[>2g\	10
=114	=114	=114	=114	=114
!LO:TX:b:Bi:t=X	!	!	!LO:TX:b:Bi:t=X	!
2C/]	4	1F	2g\]	9
[<2AA/	6	.	[>2a\	10
=115	=115	=115	=115	=115
2AA/]	8	1A	2a\]	8
[>2F\	3	.	[>2f\	6
=116	=116	=116	=116	=116
2F\]	2	1G	2f\]	7
2E\	3	.	2e\	6
=117	=117	=117	=117	=117
0F	1	0F	0f	8
!!LO:LB:g=original
=118||	=118||	=118||	=118||	=118||
*clefC4	*	*clefC3	*clefC1	*
*M2/2	*	*M2/2	*M2/2	*
*met(c|)	*	*met(c|)	*met(c|)	*
2r	.	1G	2r	.
[<2G/	1	.	[>2g\	8
=119	=119	=119	=119	=119
!LO:TX:b:Bi:t=X	!	!	!	!
2G/]	4	1c	2g\]	5
[<2E/	6	.	[>2a\	6
=120	=120	=120	=120	=120
2E/]	5	1B	2a\]	7
[<2D/	6	.	[>2g\	6
=121	=121	=121	=121	=121
2D/]	9	1e	2g\]	3
[<2C/	10	.	[>2cc\	6
=122	=122	=122	=122	=122
2C/]	9	1d	2cc\]	7
[<2BB/	10	.	[>2b\	6
=123	=123	=123	=123	=123
2BB/]	6	1g	2b\]	3
[<2E/	10	.	[>2ee\	6
=124	=124	=124	=124	=124
2E/]	6	1c	2ee\]	10
[<2C/	8	.	[>2cc\	8
=125	=125	=125	=125	=125
2C/]	10	1e	2cc\]	6
[<2G/	6	.	[>2b\	5
=126	=126	=126	=126	=126
2G/]	5	1d	2b\]	6
[<2B\	3	.	[>2dd\	8
=127	=127	=127	=127	=127
2B\]	3	1G	2dd\]	5
[<2G/	1	.	[>2g\	8
=128	=128	=128	=128	=128
2G/]	2	1A	2g\]	7
2F#X/	3	.	2f#X\	6\
=129	=129	=129	=129	=129
0G	1	0G	0g	8
!!LO:LB:g=original
=130||	=130||	=130||	=130||	=130||
*M2/2	*	*M2/2	*M2/2	*
*met(c|)	*	*met(c|)	*met(c|)	*
2r	.	1c	2r	.
[<2C/	8	.	[>2g\	5
=131	=131	=131	=131	=131
2C/]	10	1e	2g\]	3
[<2G/	6	.	[>2cc\	6
=132	=132	=132	=132	=132
2G/]	7	1f	2cc\]	5
[<2F/	8	.	[>2dd\	6
=133	=133	=133	=133	=133
2F/]	6	1d	2dd\]	8
[<2G/	5	.	[>2b\	6
=134	=134	=134	=134	=134
2G/]	6	1e	2b\]	5
[<2E/	8	.	[>2ee\	8
=135	=135	=135	=135	=135
2E/]	6	1c	2ee\]	10
[<2F/	5	.	[>2cc\	8
=136	=136	=136	=136	=136
!	!	!	!LO:TX:b:Bi:t=X	!
2F/]	10	1a	2cc\]	3
[<2D/	5	.	[>2dd\	4
=137	=137	=137	=137	=137
2D/]	10	1f	2dd\]	6
!LO:TX:b:Bi:t=X	!	!	!	!
[<2C/	4	.	[>2b\	4
=138	=138	=138	=138	=138
2C/]	10	1e	2b\]	5
[<2G/	6	.	[>2cc\	6
=139	=139	=139	=139	=139
2G/]	5	1d	2cc\]	7
2B\	3	.	2b\	.
=140	=140	=140	=140	=140
0c	1	0c	0cc	.
!!LO:PB:g=original
=141||	=141||	=141||	=141||	=141||
*M2/2	*	*M2/2	*M2/2	*
*met(c|)	*	*met(c|)	*met(c|)	*
2r	.	1e	2r	.
[<2E/	8	.	[>2b\	5
=142	=142	=142	=142	=142
2E/]	4	1A	2b\]	9
[<2D/	5	.	[>2a\	8
=143	=143	=143	=143	=143
2D/]	8	1d	2a\]	5
[<2F/	6	.	[>2ff\	10
=144	=144	=144	=144	=144
2F/]	5	1c	2ff\]	4
[<2E/	6	.	[>2ee\	3
=145	=145	=145	=145	=145
2E/]	5	1B	2ee\]	4
[<2D/	6	.	[>2dd\	3
=146	=146	=146	=146	=146
2D/]	5	1A	2dd\]	4
[<2C/	6	.	[>2cc\	3
=147	=147	=147	=147	=147
2C/]	6	1a	2cc\]	3
[>2c\	6	.	[>2ee\	5
=148	=148	=148	=148	=148
2c\]	3	1e	2ee\]	8
[>2G\	6	.	2cc\	3
=149	=149	=149	=149	=149
2G\]	8	1g	2cc\	4
2e\	3	.	2b\	3
=150	=150	=150	=150	=150
2e\	2	1f	2cc\	5
2d\	3	.	2dd\	6
=151	=151	=151	=151	=151
0e	.	0e	0ee	.
!!LO:LB:g=original
=152||	=152||	=152||	=152||	=152||
*clefF4	*	*clefC4	*clefC3	*
*M2/2	*	*M2/2	*M2/2	*
*met(c|)	*	*met(c|)	*met(c|)	*
2r	.	1F	2r	.
[>2F\	1	.	[>2f\	8
=153	=153	=153	=153	=153
2F\]	5	1c	2f\]	4
[>2E\	6	.	[>2e\	3
=154	=154	=154	=154	=154
2E\]	4	1A	2e\]	5
[>2D\	5	.	[>2f\	6
=155	=155	=155	=155	=155
2D\]	3	1F	2f\]	8
[<2BB-X/	5	.	[>2a\	10
=156	=156	=156	=156	=156
2BB-/]	3	1D	2a\]	5
[<2GG/	5	.	[>2b-X\	6
=157	=157	=157	=157	=157
2GG/]	6	1E	2b-\]	5
2C/	6	.	[>2g\	10
.	3	.	.	.
=158	=158	=158	=158	=158
2AA/	6	1F	2g\]	9
[<2FF/	8	.	[>2f\	8
=159	=159	=159	=159	=159
2FF/]	10	1A	2f\]	6
[>2F\	3	.	2c\	3
=160	=160	=160	=160	=160
2F\]	2	1G	2d\	5
2E\	3	.	2e\	6
=161	=161	=161	=161	=161
0F	1	0F	0f	.
!!LO:LB:g=original
=162||	=162||	=162||	=162||	=162||
*M2/2	*	*M2/2	*M2/2	*
*met(c|)	*	*met(c|)	*met(c|)	*
2r	.	1F	2r	.
[>2F\	1	.	[>2f\	8
=163	=163	=163	=163	=163
2F\]	5	1c	2f\]	4
[>2E\	6	.	[>2e\	3
=164	=164	=164	=164	=164
2E\]	4	1A	2e\]	5
[>2D\	5	.	[>2a\	8
=165	=165	=165	=165	=165
2D\]	3	1F	2a\]	10
[<2AA/	6	.	[>2f\	8
=166	=166	=166	=166	=166
2AA/]	4	1D	2f\]	10
[<2GG/	5	.	[>2d\	8
=167	=167	=167	=167	=167
2GG/]	6	1E	2d\]	7
[<2C/	3	.	[>2c\	6
=168	=168	=168	=168	=168
2C/]	4	1F	2c\]	5
2BB-X/	5	.	[<2A/	3
=169	=169	=169	=169	=169
2C/	6	1A	2A/]	1
[>2F\	3	.	[>2f\	6
=170	=170	=170	=170	=170
2F\]	2	1G	2f\]	7
2E\	3	.	2e\	6
=171	=171	=171	=171	=171
0F	1	0F	0f	.
!!LO:PB:g=original
=172||	=172||	=172||	=172||	=172||
*clefC4	*	*clefC3	*clefC1	*
*M2/2	*	*M2/2	*M2/2	*
*met(c|)	*	*met(c|)	*met(c|)	*
2r	.	1G	2r	.
[<2G/	1	.	[>2g\	8
=173	=173	=173	=173	=173
*^	*	*	*	*
!LO:TX:a:t=P:w subspinie rozpisane dopisane w źródle lżejszym atramentem nuty:problem	!	!	!	!	!
2G/]	2E\	4	1c	2g\]	5
[<2F/	[>2A/	5	.	[>2ee\	10
=174	=174	=174	=174	=174	=174
2F/]	2A/]	4	1B	2ee\]	4
[<2E/	2G/	5	.	[>2dd\	3
=175	=175	=175	=175	=175	=175
2E/]	2G/	8	1e	2dd\]	7
[<2G/	[>2c/	6	.	[>2cc\	6
=176	=176	=176	=176	=176	=176
2G/]	2c/]	5	1d	2cc\]	7
[>2B\	2ryy	3	.	[>2b\	6
*v	*v	*	*	*	*
=177	=177	=177	=177	=177
2B\]	6	1g	2b\]	3
[>2c\	5	.	[>2dd\	5
=178	=178	=178	=178	=178
2c\]	1	1c	2dd\]	9
[>2A\	3	.	[>2cc\	8
=179	=179	=179	=179	=179
2A\]	5	1e	2cc\]	6
[<2G/	6	.	[>2b\	5
=180	=180	=180	=180	=180
2G/]	5	1d	2b\]	6
[>2B\	3	.	[>2dd\	8
=181	=181	=181	=181	=181
2B\]	3	1G	2dd\]	5
[<2G/	1	.	[>2g\	8
=182	=182	=182	=182	=182
2G/]	2	1A	2g\]	7
2F#X/	.	.	2f#X\	6\
=183	=183	=183	=183	=183
0G	.	0G	0g	8
!!LO:LB:g=original
=184||	=184||	=184||	=184||	=184||
*M2/2	*	*M2/2	*M2/2	*
*met(c|)	*	*met(c|)	*met(c|)	*
2r	.	1e	2r	.
[<2E/	8	.	[>2ee\	8
=185	=185	=185	=185	=185
*	*	*	*^	*
2E/]	4	1A	2ee\]	2ryy	5
[<2D/	5	.	[<2cc\	[>2ff\	6
=186	=186	=186	=186	=186	=186
2D/]	8	1d	2cc\]	2ff\]	10
[>2B\	3	.	[>2b\	2dd\	6
*	*	*	*v	*v	*
=187	=187	=187	=187	=187
2B\]	2	1c	2b\]	7
[>2A\	3	.	[>2a\	6
=188	=188	=188	=188	=188
2A\]	2	1B	2a\]	7
[<2G/	3	.	2g#X\	6
=189	=189	=189	=189	=189
2G/]	2	1A	2a\	8
[<2F/	3	.	[>2cc\	3
=190	=190	=190	=190	=190
2F/]	10	1a	2cc\]	3
[<2C/	6	.	[>2ee\	5
=191	=191	=191	=191	=191
2C/]	10	1e	2ee\]	8
2c\	3	.	[>2b\	5
=192	=192	=192	=192	=192
2c\	5	1g	2b\]	3
[>2e\	3	.	[>2ee\	6
=193	=193	=193	=193	=193
2e\]	2	1f	2ee\]	7
2d\	3	.	2dd\	6
=194	=194	=194	=194	=194
0e	1	0e	0ee	.
!!LO:LB:g=original
=195||	=195||	=195||	=195||	=195||
*clefF4	*	*	*clefC3	*
*M2/2	*	*M2/2	*M2/2	*
*met(c|)	*	*met(c|)	*met(c|)	*
2r	.	1A	2r	.
[>2F\	1	.	[>2f\	8
=196	=196	=196	=196	=196
2F\]	5	1e	2f\]	4
[>2E\	6	.	[>2e\	3
=197	=197	=197	=197	=197
2E\]	4	1c	2e\]	5
[>2D\	5	.	[>2f\	6
=198	=198	=198	=198	=198
2D\]	3	1A	2f\]	8
[<2BB-X/	5	.	[>2a\	10
=199	=199	=199	=199	=199
2BB-/]	3	1F	2a\]	5
[<2GG/	5	.	[>2b-X\	6
=200	=200	=200	=200	=200
2GG/]	6	1G	2b-\]	5
[<2C/	4	.	[>2cc\	6
=201	=201	=201	=201	=201
2C/]	4	1A	2cc\]	5
2BB-X/	5	.	[>2a\	10
=202	=202	=202	=202	=202
2AA/	8	1c	2a\]	8
[>2F\	3	.	[>2f\	6
=203	=203	=203	=203	=203
2F\]	2	1B	2f\]	7
2E\	3	.	2e\	6
=204	=204	=204	=204	=204
0F	.	0A	0f	.
==	==	==	==	==
*-	*-	*-	*-	*-
!!title: @{OTL};
!!!RDF**kern: > = above
!!!RDF**kern: < = below
!!!RDF**kern: N = linked
!!!RDF**kern: i = editorial accidental
!!!ENC: Marcin Jachim
!!!END: 2021-03-28
!!!EED: Wojciech Jakubiak-Danek
!!!EST: 2021-04-14
!!!URL-scan: http://repozytorium.nifc.pl/skany/pl-wtm-nut--r1185
!!!ONB-nifc: UWAGA: całość w jednym pliku. Poszczególne systemy proszę kończyć w HD podwójną kreską ||.
